X: 17909
T: Hour Before Dawn, The
R: reel
M: 4/4
K: Bminor
|:dBBA B3c|dBBA F2EA|D3E FAAF|(3Bcd ec decd|
BFBc dBde|f2ed (3Bcd BA|GDAG FDDF|1 EDcA edef:|2 EDcA EDEF||
G3 A ~B3 c|Acde a3 b|f2ec decd|(3Bcd fa fdBA|
GDGA BDGB|ABce abfe|f2 ec decd|(3Bcd fe dcBA|
G3 A BDGB|Acde a2 z b|f2ec decd|(3Bcd fa fdef|
g2 fd ef (e2|e)ddc BA (3Bcd|g2fd ef(a2|a)bfa fedc||

